assets/icons/camera.svg

<svg width="19" height="18" viewBox="0 0 19 18" fill="none" xmlns="http://www.w3.org/2000/svg">
<g clip-path="url(#clip0_553_1601)">
<path fill-rule="evenodd" clip-rule="evenodd" d="M9.47495 0.937989H9.52213C9.97513 0.937981 10.3502 0.937974 10.6599 0.964351C10.9845 0.991996 11.2777 1.05101 11.5606 1.19105C12.0646 1.44056 12.3832 1.83707 12.6068 2.23474C12.7801 2.54302 12.9147 2.88935 13.0288 3.18287C13.0557 3.25214 13.0815 3.31846 13.1064 3.38066L13.217 3.65699C13.2714 3.79294 13.2985 3.8609 13.3548 3.89951C13.4109 3.93811 13.485 3.93908 13.6329 3.94101C14.3239 3.95005 14.8461 3.98913 15.3046 4.18158C16.0154 4.47995 16.5924 5.03023 16.9289 5.72709C17.079 6.038 17.1555 6.37201 17.206 6.75989C17.2554 7.13806 17.2842 7.60466 17.3202 8.18854L17.4402 10.1347C17.5301 11.5923 17.6011 12.7441 17.5348 13.6475C17.4667 14.5752 17.2492 15.3318 16.6882 15.9369C16.1261 16.5433 15.3913 16.812 14.4781 16.9393C13.5911 17.063 12.451 17.063 11.0113 17.063H7.98558C6.54587 17.063 5.40579 17.063 4.51875 16.9393C3.60565 16.812 2.87077 16.5433 2.30869 15.9369C1.7477 15.3318 1.53017 14.5752 1.46206 13.6475C1.39573 12.7441 1.46677 11.5923 1.55668 10.1347L1.67671 8.18839C1.71271 7.60459 1.74148 7.13803 1.79081 6.75989C1.84141 6.37201 1.91785 6.038 2.06797 5.72709C2.40447 5.03023 2.98144 4.47995 3.69229 4.18158C4.15084 3.98912 4.67308 3.95004 5.3641 3.94101C5.51209 3.93908 5.5861 3.93811 5.64232 3.89951C5.69854 3.8609 5.72573 3.79294 5.78011 3.65699L5.89064 3.38066C5.91552 3.31847 5.9413 3.25214 5.96821 3.18289C6.0823 2.88937 6.21692 2.54301 6.39029 2.23474C6.61394 1.83707 6.93253 1.44056 7.43648 1.19105C7.71935 1.05101 8.0126 0.991996 8.3372 0.964351C8.64688 0.937974 9.02188 0.937981 9.47495 0.937989ZM8.75 4.50049C8.75 4.08628 9.08427 3.75049 9.49662 3.75049C9.90605 3.75049 10.25 4.08642 10.25 4.50049C10.25 4.91456 9.90605 5.25049 9.49662 5.25049C9.08427 5.25049 8.75 4.91471 8.75 4.50049ZM9.5 7.50049C7.84314 7.50049 6.5 8.84366 6.5 10.5005C6.5 12.1573 7.84314 13.5005 9.5 13.5005C11.1568 13.5005 12.5 12.1573 12.5 10.5005C12.5 8.84366 11.1568 7.50049 9.5 7.50049Z" fill="white"/>
</g>
<defs>
<clipPath id="clip0_553_1601">
<rect width="18" height="18" fill="white" transform="translate(0.5 0.000488281)"/>
</clipPath>
</defs>
</svg>

<svg xmlns="http://www.w3.org/2000/svg" width="19" height="18" fill="none" viewBox="0 0 19 18"><g clip-path="url(#a)"><path fill="#fff" fill-rule="evenodd" d="M9.475.938h.047c.453 0 .828 0 1.138.026.325.028.618.087.9.227.505.25.823.646 1.047 1.044.173.308.308.654.422.948l.077.198.111.276c.054.136.082.204.138.243.056.038.13.04.278.041.69.01 1.213.048 1.672.24.71.299 1.287.85 1.624 1.546.15.311.227.645.277 1.033.05.378.078.845.114 1.429l.12 1.946c.09 1.457.161 2.61.095 3.513-.068.927-.286 1.684-.847 2.289-.562.606-1.297.875-2.21 1.002-.887.124-2.027.124-3.467.124H7.986c-1.44 0-2.58 0-3.467-.124-.913-.127-1.648-.396-2.21-1.002-.561-.605-.779-1.362-.847-2.29-.066-.903.005-2.055.095-3.512l.12-1.947c.036-.583.064-1.05.114-1.428.05-.388.127-.722.277-1.033a3.17 3.17 0 0 1 1.624-1.545c.459-.193.981-.232 1.672-.241.148-.002.222-.003.278-.041.057-.04.084-.107.138-.243l.11-.276.078-.198a7.5 7.5 0 0 1 .422-.948c.224-.398.543-.794 1.046-1.044.283-.14.577-.199.901-.227.31-.026.685-.026 1.138-.026M8.75 4.5c0-.414.334-.75.747-.75.41 0 .753.336.753.75 0 .415-.344.75-.753.75a.75.75 0 0 1-.747-.75m.75 3a3 3 0 1 0 0 6 3 3 0 0 0 0-6" clip-rule="evenodd"/></g><defs><clipPath id="a"><path fill="#fff" d="M.5 0h18v18H.5z"/></clipPath></defs></svg>
